material/.icons/material/table-cog.svg

<svg xmlns="http://www.w3.org/2000/svg" viewBox="0 0 24 24"><path d="M3 3h14a2 2 0 012 2v7.08a6.01 6.01 0 00-4.32.92H11v4h1.08c-.11.68-.11 1.35 0 2H3a2 2 0 01-2-2V5c0-1.1.9-2 2-2m0 4v4h6V7H3m8 0v4h6V7h-6m-8 6v4h6v-4H3m19.78 6.32l-1.07-.82c.02-.17.04-.33.04-.5s-.01-.33-.04-.5l1.06-.82a.26.26 0 00.06-.32l-1-1.73c-.06-.13-.19-.13-.33-.13l-1.22.5c-.28-.18-.54-.35-.85-.47l-.19-1.32c-.01-.12-.12-.21-.24-.21h-2c-.12 0-.23.09-.25.21l-.19 1.32c-.3.13-.59.29-.85.47l-1.24-.5c-.11 0-.24 0-.31.13l-1 1.73c-.06.11-.04.24.06.32l1.06.82a4.193 4.193 0 000 1l-1.06.82a.26.26 0 00-.06.32l1 1.73c.06.13.19.13.31.13l1.24-.5c.26.18.54.35.85.47l.19 1.32c.02.12.12.21.25.21h2c.12 0 .23-.09.25-.21l.19-1.32c.3-.13.56-.29.84-.47l1.22.5c.14 0 .27 0 .34-.13l1-1.73a.26.26 0 00-.06-.32M18 19.5c-.83 0-1.5-.67-1.5-1.5s.68-1.5 1.5-1.5 1.5.67 1.5 1.5-.66 1.5-1.5 1.5z"/></svg>

<?xml version="1.0" encoding="UTF-8"?><!DOCTYPE svg PUBLIC "-//W3C//DTD SVG 1.1//EN" "http://www.w3.org/Graphics/SVG/1.1/DTD/svg11.dtd"><svg xmlns="http://www.w3.org/2000/svg" xmlns:xlink="http://www.w3.org/1999/xlink" version="1.1" id="mdi-table-cog" width="24" height="24" viewBox="0 0 24 24"><path d="M3 3H17C18.11 3 19 3.9 19 5V12.08C17.45 11.82 15.92 12.18 14.68 13H11V17H12.08C11.97 17.68 11.97 18.35 12.08 19H3C1.9 19 1 18.11 1 17V5C1 3.9 1.9 3 3 3M3 7V11H9V7H3M11 7V11H17V7H11M3 13V17H9V13H3M22.78 19.32L21.71 18.5C21.73 18.33 21.75 18.17 21.75 18S21.74 17.67 21.71 17.5L22.77 16.68C22.86 16.6 22.89 16.47 22.83 16.36L21.83 14.63C21.77 14.5 21.64 14.5 21.5 14.5L20.28 15C20 14.82 19.74 14.65 19.43 14.53L19.24 13.21C19.23 13.09 19.12 13 19 13H17C16.88 13 16.77 13.09 16.75 13.21L16.56 14.53C16.26 14.66 15.97 14.82 15.71 15L14.47 14.5C14.36 14.5 14.23 14.5 14.16 14.63L13.16 16.36C13.1 16.47 13.12 16.6 13.22 16.68L14.28 17.5C14.26 17.67 14.25 17.83 14.25 18S14.26 18.33 14.28 18.5L13.22 19.32C13.13 19.4 13.1 19.53 13.16 19.64L14.16 21.37C14.22 21.5 14.35 21.5 14.47 21.5L15.71 21C15.97 21.18 16.25 21.35 16.56 21.47L16.75 22.79C16.77 22.91 16.87 23 17 23H19C19.12 23 19.23 22.91 19.25 22.79L19.44 21.47C19.74 21.34 20 21.18 20.28 21L21.5 21.5C21.64 21.5 21.77 21.5 21.84 21.37L22.84 19.64C22.9 19.53 22.87 19.4 22.78 19.32M18 19.5C17.17 19.5 16.5 18.83 16.5 18S17.18 16.5 18 16.5 19.5 17.17 19.5 18 18.84 19.5 18 19.5Z" /></svg>
